assets/icones/twitterIcon.svg

<svg width="18" height="15" viewBox="0 0 18 15" fill="none" xmlns="http://www.w3.org/2000/svg">
<path d="M13.6741 0H16.2809L10.5859 6.35385L17.2856 15H12.0398L7.93104 9.75615L3.22969 15H0.621342L6.71275 8.20385L0.285645 0H5.66468L9.37863 4.79308L13.6741 0ZM12.7592 13.4769H14.2037L4.87981 1.44308H3.32977L12.7592 13.4769Z" fill="white"/>
</svg>

<svg width="18" height="15" fill="none" xmlns="http://www.w3.org/2000/svg"><path d="M13.674 0h2.607l-5.695 6.354 6.7 8.646H12.04L7.93 9.756 3.23 15H.62l6.092-6.796L.286 0h5.379l3.714 4.793L13.674 0zm-.915 13.477h1.445L4.88 1.443H3.33l9.43 12.034z" fill="#fff"/></svg>
